X:562
T:Lydecker's
S:Bruce & Emmett's Drummers and Fifers Guide (1862), p. 56
M:2/4
L:1/16
Q:1/4=100
K:D
%%MIDI program 72
%%MIDI transpose 8
%%MIDI ratio 3 1
(3(ABc)|dafd Bgec|dafd dcBA|BdAd GdFd|E2ec dcBA|dafd Bged|
c2d2 e3f|geag eABc|d2f2d2::cd|eAfA gAfA|eAfe dcBA|BbAa GgFf|
egfe dcBA|BbAa GgFf|egfd cdef|geag eABc|d2f2d2:|

